X: 1
T: Jordon Taylor (AABBC)
C: Gordon MacLean
R: march
S: printed copy of unknown origin in Concord Slow Scottish Session collection
Z: 2019 John Chambers <jc:trillian.mit.edu> (arr. for 40 bars)
M: 2/4
L: 1/8
K: G
"A"[|] GA |\
"G"B2d2 "Am"cBAG | "G"B2D2 "C"E4 | "G"D3d "Am"cBAG | "D7"B2A2 A2GA |\
"G"B2d2 "Am"cBAG | "G"B2D2 "C"E4 | "G"D3d "Am"cBAG | "D7"A3G "G"G2- :|
"B"|: GA |\
"G"(Bd3) (Bd3) | "C"edcB "D7"d4 | "G"D2d2 "Em"B2d2 | "Am"cBAG "D7"A4 |\
"G"(Bd3) (Bd3) | "C"edcB "D7"d4 | "G"D2d2 "Am"cBAG | "D7"A3G "G"G2 :|
"C"[|] y GA |\
"G"(Bd3) d2g2 | "C"edcB "D7"d4 | "C"e2g2 "G"d2g2 | "Am"cBAG "D7"A2GA |\
"G"Bd"C"ce "G"Bd"D7"AB | "C"cBAG "Am"E4 | "G"D3d "C"cBAG | "D7"A3G "G"G2 |]
